!!!COM: Robert Schumann
!!!CNT: Deutsch
!!!TXO: Deutsch
!!!OTL: Wanderlied
!!!LYR: Kerner
!!!OPR: Ausgewa2hlte Lieder
!!!OPS: Op. 35
!!!ONM: No. 3
!!!ENC: Ben Fuhrman
!!!YOR: Schumann Lieder - Max Friedlaender, ed.,
!!!YOR: New York: C. F. Peters, Vol. 1
!!!ODT: 1840/
!!NB: Vocal melody and text only encoded.
!!NB: First instance of melodic material only encoded.
**kern	**silbe
*clefG2	*
*k[b-e-a-d-]	*
*M4/4	*
!!created: 5/18/06 10:46
!!proofed and posted: 5/18/06 10;48
!!edit time: 66 minutes
=2	=2
2r	.
4r	.
8.r	.
{16a-	{Wohl
=3	=3
4a-	auf!
8.e-	noch
16e-	ge-
4e-	-trun-
8.c	-ken
16c	den
=4	=4
(8c	fun-
8e-)	|
8a-	-keln-
8cc	-den
4..ee-}	Wein!}
{16cc	{A-
=5	=5
4cc	-de
8.a-	nun,
16a-	ihr
4a-	Lie-
8.e-}	-ben!}
{16e-	{ge-
=6	=6
(8c	-schie-
8e-)	|
8a-	-den
8cc	muss
4.ff}	sein.}
{8ee-	{A-
=7	=7
4dd-	-de
8cc	nun,
8cc	ihr
4b-	Ber-
8cc	-ge,
8cc	du
=8	=8
(8dd	va2-
8cc)	|
8b-	-ter-
8a-	-lich
4..ee-}	Haus!}
{16cc	{Es
=9	=9
4cc	treibt
8.b-	in
16a-	die
4dd-	Fer-
8cc	-ne
8b-	mich
=10	=10
4ee-	ma2ch-
8.e-	-tig
16e-	hin-
[2a-	-aus.]
=11	=11
2a-]}	|}
2r	.
=12	=12
2r	.
4r	.
8.r	.
{16a-	{Die
=13	=13
4a-	Son-
8.e-	-ne,
16e-	sie
4e-	blei-
8.c	-bet
16c	am
=14	=14
(8c	Him-
8e-)	|
8a-	-mel
8cc	nicht
4..ee-}	steh'n,}
{16cc	{es
=15	=15
4cc	treibt
8.a-	sie,
16a-	durch
4a-	La2n-
8.e-	-der
16e-	und
=16	=16
(8c	Mee-
8e-)	|
8a-	-re
8cc	zu
4.ff}	geh'n.}
{8ee-	{Die
=17	=17
4dd-	Wo-
8cc	-ge
8cc	nicht
4b-	haf-
8cc	-tet
8cc	am
=18	=18
(8dd-	ein
8cc)	|
8b-	-sa-
8a-	-men
4..ee-}	Strand,}
{16cc	{die
=19	=19
4cc	Stu2r-
8.b-	-me,
16a-	sie
4dd-	brau-
8cc	-sen
8b-	mit
=20	=20
4ee-	Macht
8.e-	durch
16e-	das
[2a-	Land.
=21	=21
2a-]}	|}
2r	.
=22	=22
2r	.
4r	.
8.r	.
{16a-	{Mit
=23	=23
4a-	ei-
8.e-	-len-
16e-	-den
4e-	Wol-
8.c	-ken
16c	der
=24	=24
(8c	Vo-
8e-)	|
8a-	-gel
8cc	dort
4..e-}	zieht}
{16cc	{und
=25	=25
4cc	singt
8.a-	in
16a-	der
4a-	Fer-
8.e-	-ne
16e-	ein
=26	=26
(8c	hei-
8e-)	|
8a-	-mat-
8cc	-lich
4.ff}	Lied.}
{8ee-	{So
=27	=27
4dd-	treibt
8.cc	es
16cc	den
4b-	Bur-
8cc	-schen
8cc	durch
=28	=28
(8dd-	Wa2l-
8cc)	|
8b-	-der
8a-	und
4..e-}	Feld,}
{16cc	{zu
=29	=29
4cc	glei-
8.b-	-chen
16a-	der
4dd-	Mut-
8cc	-ter,
8b-	der
=30	=30
4ee-	wan-
8.e-	-dern-
16e-	-den
[2a-	Welt.
=31	=31
2a-]}	|}
2r	.
=32	=32
*k[f#c#g#d#]	*
2r	.
4r	.
8r	.
{8g#	{Da
=33	=33
4g#	gru2s-
8g#	-sen
8g#	ihn
4g#	Vo2-
8a	-gel
8a	be-
=34	=34
4b	-kannt
8b	u2-
8b	-berm
4.f#}	Meer,}
{8a	{sie
=35	=35
4a	flo-
8a	-gen
8a	von
4a	Flu-
8b	-ren
8b	der
=36	=36
4cc#	Hei-
8cc#	-met
8cc#	hie-
4.g#}	-her;}
{8cc#	{da
=37	=37
4cc#	duf-
8cc#	-ten
8cc#	die
(8ee	Blu-
8b)	|
8b	-men
8b	ver-
=38	=38
4a	-trau-
8a	-lich
8b	um
4.g#}	ihn,}
{8cc#	{sie
=39	=39
4cc#	trie-
8cc#	-ben
8cc#	vom
(8e	Lan-
8b)	|
8b	-de
8b	die
=40	=40
4a	Lu2f-
8a	-te
8b	da-
4g#}	-hin.}
8r	.
{8g#	{Die
=41	=41
4f#	Vo2-
8ee	-gel,
8ee	die
4dd#	ken-
8b	-nen
8b	sein
=42	=42
(8dd#	va2-
8cc#)	|
8b	-ter-
8a#	-lich
4.b}	Haus,}
{8f#	{die
=43	=43
4f#	Blu-
8ee	-men,
8ee	die
4dd#	pflanzt'
8b	er
8b	der
=44	=44
(8dd#	Lie-
8cc#)	|
8b	-be
8a#	zum
4.b}	Strauss,}
{8b	{und
=45	=45
4b	Lie-
8f##	-be,
8f##	die
4g#	folgt
8g#	ihm,
8g#	sie
=46	=46
4cc#	geht
8g#	ihm
8a	zur
4.a#}	Hand:}
{8cc#	{so
=47	=47
4cc#	wird
8b	ihm
8b	zur
4an	Hei-
8g#	-mat
8g#	das
=48	=48
4f#	fer-
8b	-nes-
8a	-te
4.g#}	Land,}
{8g#	{so
=49	=49
4cc#	wird
8b	ihm
8b	zur
(8b	Hei-
8a)	|
8g#	-mat
8g#	das
=50	=50
4f#	fer-
8g#	-nes-
8d#	-te
2e}	Land.}
!! rest to measure 52
=52	=52
*k[b-e-a-d-]	*
2r	.
4r	.
8.r	.
{16a-	{Wohl
=53	=53
4a-	auf!
8.e-	noch
16e-	ge-
4e-	-trun-
8.c	-ken
16c	den
=54	=54
(8c	fun-
8e-)	|
8a-	-keln-
8cc	-den
4..ee-}	Wein!}
{16cc	{A-
=55	=55
4cc	-de
8.a-	nun,
16a-	ihr
4a-	Lie-
8.e-}	-ben!}
{16e-	{ge
=56	=56
(8c	-schie-
8e-)	|
8a-	-den
8cc	muss
4.ff}	sein!}
{8ee-	{A-
=57	=57
4dd-	-de
8cc	nun,
8cc	ihr
4b-	Ber-
8cc	-ge,
8cc	du
=58	=58
(8dd-	va2-
8cc)	|
8b-	-ter-
8a-	-lich
4..ee-}	Haus!}
{16cc	{Es
=59	=59
4cc	treibt
8.b-	in
16a-	die
4dd-	Fer-
8d-	-ne
16r	.
16ddn	mich
=60	=60
4ddn	ma2ch-
8cc	-tig
8b-	hin-
4.ee-}	-aus,}
{8ee-	{es
=61	=61
4ee-	treibt
8ee-	in
8een	die
(8gg	Fer-
8ff)	|
8ee-	-ne
8dd-	mich
=62	=62
4cc	ma2ch-
8.b-	-tig
16b-	hin-
[2a-	-aus!
=63	=63
2a-]}	|}
2r	.
==	==
*-	*-
